epam-assets/icon-sources/18/file-file.svg

<svg width="18" height="18" viewBox="0 0 18 18" fill="none" xmlns="http://www.w3.org/2000/svg">
<g id="18/file-file">
<path id="icon" d="M4.5 16.5C4.0875 16.5 3.7345 16.3533 3.441 16.0597C3.147 15.7657 3 15.4125 3 15V3C3 2.5875 3.147 2.23425 3.441 1.94025C3.7345 1.64675 4.0875 1.5 4.5 1.5H10.5L15 6V15C15 15.4125 14.8533 15.7657 14.5597 16.0597C14.2657 16.3533 13.9125 16.5 13.5 16.5H4.5ZM9.75 6.75H13.5L9.75 3V6.75Z" fill="#6C6F80"/>
</g>
</svg>

<svg xmlns="http://www.w3.org/2000/svg" width="18" height="18" fill="none" viewBox="0 0 18 18">
  <path fill="#6C6F80" d="M4.5 16.5c-.412 0-.765-.147-1.059-.44A1.445 1.445 0 0 1 3 15V3c0-.413.147-.766.441-1.06.294-.293.647-.44 1.059-.44h6L15 6v9c0 .412-.147.766-.44 1.06a1.45 1.45 0 0 1-1.06.44h-9Zm5.25-9.75h3.75L9.75 3v3.75Z"/>
</svg>
